X: 1
T: John O'Connor
M: 6/8
L: 1/8
R: jig
K: Gmaj
D | G2~G FED | E2F G2A | B2G c2A | BAG cBA |
    Bcd ~EGE | FGA DED | GFE DB,D | G3 G2 :|
z | ded def | ~g3 g2G | cdc cBc | e3 e2c |
    dcB cBA | Bcd D2D | EFG AFD | G3 G2 :|
z | BGE EGE | AFD DFD | E/F/GE F/G/AG | ~F3 D2c |
    Bcd dBG | cde ecA | GFE AFD | G3 G2 :|
